X: 21074
T: The MAID THAT TENDS THE GOATS
O: Gaelic air.
Q: "Slow."
%R: air, strathspey
B: W. Hamilton "Universal Tune-Book" Vol. 2 Glasgow 1846 p.107 #4
S: http://s3-eu-west-1.amazonaws.com/itma.dl.printmaterial/book_pdfs/hamiltonvol2web.pdf
Z: 2016 John Chambers <jc:trillian.mit.edu>
M: C
L: 1/8
K: C
% - - - - - - - - - - - - - - - - - - - - - - - - -
[|\
G<G c>c e>G {G}F2 | GG e>f {d}d>cd<f |\
g>gfg B>c {c}e2 | f>d g>f d>c c2 |]\
b>g g>f e>f G2 |
e<e f<f b>g g>f |\
gce>B G>F F2 | GG e>f {e}d>c d<f |\
g>g f>g c2 Bc | e>d g>f d>c c2 |]
% - - - - - - - - - - - - - - - - - - - - - - - - -

%%sep 1 1 500
%%sep 1 1 500

